packages/katcn/src/icons/svg/videoOff.svg

<svg width="24" height="25" viewBox="0 0 24 25" fill="none" xmlns="http://www.w3.org/2000/svg">
<path fill-rule="evenodd" clip-rule="evenodd" d="M2.70711 1.5009C2.31658 1.11038 1.68342 1.11038 1.29289 1.5009C0.902369 1.89143 0.902369 2.52459 1.29289 2.91511L3.34085 4.96307C1.96642 5.50183 1 6.83627 1 8.40801V16.008C1 18.0603 2.64772 19.708 4.7 19.708H12.5C14.0173 19.708 15.3135 18.8073 15.8862 17.5084L21.2929 22.9151C21.6834 23.3056 22.3166 23.3056 22.7071 22.9151C23.0976 22.5246 23.0976 21.8914 22.7071 21.5009L2.70711 1.5009ZM14.2 15.8222L5.08579 6.70801H4.7C3.75228 6.70801 3 7.46029 3 8.40801V16.008C3 16.9557 3.75228 17.708 4.7 17.708H12.5C13.4477 17.708 14.2 16.9557 14.2 16.008V15.8222ZM12.5 4.70801H10.5C9.94771 4.70801 9.5 5.15572 9.5 5.70801C9.5 6.26029 9.94771 6.70801 10.5 6.70801H12.5C13.4477 6.70801 14.2 7.46029 14.2 8.40801V10.408C14.2 10.9603 14.6477 11.408 15.2 11.408C15.7523 11.408 16.2 10.9603 16.2 10.408V9.87604L21.0868 7.43264C21.1861 7.40489 21.2472 7.42927 21.27 7.44352C21.284 7.45231 21.2897 7.46025 21.2921 7.46443L21.2921 7.46446C21.2935 7.46703 21.3 7.47839 21.3 7.50802V17.208C21.3 17.7603 21.7477 18.208 22.3 18.208C22.8523 18.208 23.3 17.7603 23.3 17.208V7.50802C23.3 5.90069 21.697 5.06613 20.3489 5.57169C20.3161 5.58397 20.284 5.59795 20.2528 5.61359L16.1284 7.67577C15.7911 5.9775 14.3014 4.70801 12.5 4.70801Z" fill="black"/>
</svg>

<svg xmlns="http://www.w3.org/2000/svg" fill="none" viewBox="0 0 24 25"><path fill="#000" fill-rule="evenodd" d="M2.707 1.5a1 1 0 0 0-1.414 1.415L3.34 4.963A3.69 3.69 0 0 0 1 8.408v7.6a3.69 3.69 0 0 0 3.7 3.7h7.8c1.517 0 2.813-.9 3.386-2.2l5.407 5.407a1 1 0 0 0 1.414-1.414zM14.2 15.823 5.086 6.708H4.7c-.948 0-1.7.752-1.7 1.7v7.6c0 .948.752 1.7 1.7 1.7h7.8c.948 0 1.7-.752 1.7-1.7zM12.5 4.708h-2a1 1 0 1 0 0 2h2c.948 0 1.7.752 1.7 1.7v2a1 1 0 1 0 2 0v-.532l4.887-2.443c.1-.028.16-.004.183.01q.02.015.022.021c.002.003.008.014.008.044v9.7a1 1 0 1 0 2 0v-9.7c0-1.607-1.603-2.442-2.951-1.936a1 1 0 0 0-.096.042l-4.125 2.062A3.69 3.69 0 0 0 12.5 4.708" clip-rule="evenodd"/></svg>
